polaris-icons/icons/new-icons/RefundMajor.svg

<svg width="20" height="20" viewBox="0 0 20 20" fill="none" xmlns="http://www.w3.org/2000/svg">
<path d="M13.25 11.25C13.25 11.6642 12.9142 12 12.5 12C12.0858 12 11.75 11.6642 11.75 11.25V10.75C11.75 9.7835 10.9665 9 10 9H9.06066L9.78033 9.71967C10.0732 10.0126 10.0732 10.4874 9.78033 10.7803C9.48744 11.0732 9.01256 11.0732 8.71967 10.7803L6.71967 8.78033C6.42678 8.48744 6.42678 8.01256 6.71967 7.71967L8.71967 5.71967C9.01256 5.42678 9.48744 5.42678 9.78033 5.71967C10.0732 6.01256 10.0732 6.48744 9.78033 6.78033L9.06066 7.5H10C11.7949 7.5 13.25 8.95507 13.25 10.75V11.25Z" fill="#4A4A4A"/>
<path fill-rule="evenodd" clip-rule="evenodd" d="M4 16C4 16.621 4.38275 17.1779 4.9626 17.4004C5.54245 17.6229 6.19945 17.4651 6.61493 17.0034L7.74999 15.7423L8.88506 17.0034C9.16952 17.3195 9.57477 17.5 10 17.5C10.4252 17.5 10.8305 17.3195 11.1149 17.0034L12.25 15.7423L13.3851 17.0034C13.8005 17.4651 14.4576 17.6229 15.0374 17.4004C15.6172 17.1779 16 16.621 16 16V5C16 3.61929 14.8807 2.5 13.5 2.5H6.5C5.11929 2.5 4 3.61929 4 5V16ZM6.5 4C5.94772 4 5.5 4.44772 5.5 5V16L7.00671 14.3259C7.40395 13.8845 8.09605 13.8845 8.49329 14.3259L10 16L11.5067 14.3259C11.904 13.8845 12.5961 13.8845 12.9933 14.3259L14.5 16V5C14.5 4.44772 14.0523 4 13.5 4H6.5Z" fill="#4A4A4A"/>
</svg>

<svg viewBox="0 0 20 20" xmlns="http://www.w3.org/2000/svg"><path d="M13.25 11.25a.75.75 0 0 1-1.5 0v-.5a1.75 1.75 0 0 0-1.75-1.75h-.94l.72.72a.75.75 0 0 1-1.06 1.06l-2-2a.75.75 0 0 1 0-1.06l2-2a.75.75 0 0 1 1.06 1.06l-.72.72h.94a3.25 3.25 0 0 1 3.25 3.25v.5Z" fill="#5C5F62"/><path fill-rule="evenodd" d="M4 16a1.5 1.5 0 0 0 2.615 1.003l1.135-1.26 1.135 1.26a1.5 1.5 0 0 0 2.23 0l1.135-1.26 1.135 1.26a1.5 1.5 0 0 0 2.615-1.003v-11a2.5 2.5 0 0 0-2.5-2.5h-7a2.5 2.5 0 0 0-2.5 2.5v11Zm2.5-12a1 1 0 0 0-1 1v11l1.507-1.674a1 1 0 0 1 1.486 0l1.507 1.674 1.507-1.674a1 1 0 0 1 1.486 0l1.507 1.674v-11a1 1 0 0 0-1-1h-7Z" fill="#5C5F62"/></svg>
